U/U Logo.svg

<svg y="251.5" x="521" height="287" width="237" viewBox="0 0 237 287" xmlns='http://www.w3.org/2000/svg' xmlns:xlink="http://www.w3.org/1999/xlink">
 <g transform="matrix(0.5071, 0, 0, 0.5071, -50, 288)">
  <rect fill="rgb(100%, 100%, 100%)" height="600" width="600" y="-600" x="0"/>
  <rect height="1" width="1" y="0" x="0" class="anchor"/>
  <g transform="matrix(1, 0, 0, 1, 360, 0)">
   <rect height="1" width="1" y="0" x="0" class="anchor"/>
  </g>
  <g transform="matrix(1, 0, 0, 1, 636.375, 680)">
   <g transform="matrix(1, 0, 0, 1, -4.8535, -317.5906)">
    <path d="m-4.747,-45.94l-0.885,0.48l-0.004,-0.57l0.889,0.09z" fill="rgb(100%, 64.7058823529412%, 0%)"/>
   </g>
  </g>
  <g transform="matrix(19.1503, 0, 0, 19.1503, 94.8181, -657.5025)">
   <use fill="rgb(90.5882352941177%, 7.05882352941176%, 14.1176470588235%)" xlink:href="#0"/>
  </g>
 </g>
 <defs>
  <path d="m22.37,-0.75c0,0.38 -0.15,0.69 -0.45,0.95c-0.3,0.25 -0.66,0.38 -1.08,0.38c-0.61,0 -1.12,-0.52 -1.53,-1.56c-0.41,-1.03 -0.66,-2.07 -0.75,-3.1c-0.09,-0.88 -0.18,-2.9 -0.27,-6.07c-0.05,-1.3 -0.05,-2.01 0,-2.12c-1.21,3.68 -2.83,7 -4.88,9.93c-2.05,2.94 -4.02,4.41 -5.9,4.41c-1.02,0 -1.87,-0.56 -2.56,-1.7c-0.68,-1.13 -1.2,-2.62 -1.55,-4.45c-0.34,-1.83 -0.52,-3.84 -0.52,-6.02c0,-1.76 0.11,-3.75 0.31,-5.97c0.21,-2.23 0.46,-3.81 0.75,-4.75c0.11,-0.37 0.28,-0.66 0.5,-0.88c0.22,-0.22 0.49,-0.33 0.82,-0.33c0.8,0 1.19,0.32 1.19,0.95c0,0.09 -0.21,0.92 -0.64,2.48c-0.43,1.56 -0.65,4.48 -0.65,8.74c0,2.82 0.25,5.09 0.76,6.82c0.51,1.73 1.16,2.6 1.96,2.6c0.84,0 1.9,-0.75 3.17,-2.25c1.27,-1.5 2.5,-3.33 3.68,-5.47c1.19,-2.14 2.04,-4 2.57,-5.56c0.36,-1.23 0.6,-3.03 0.71,-5.41c0.08,-1 0.17,-1.55 0.28,-1.66c0.22,-0.29 0.57,-0.43 1.05,-0.43c0.63,0 0.95,0.66 0.95,1.98c0,1.5 0.04,4.07 0.12,7.72c0.08,3.64 0.17,5.96 0.28,6.97c0.09,0.8 0.25,1.43 0.48,1.89c0.22,0.45 0.48,0.84 0.77,1.18c0.28,0.33 0.43,0.58 0.43,0.73z" id="1"/>
  <use transform="matrix(1, 0, 0, 1, 0, 30.94)" xlink:href="#1" id="0"/>
 </defs>
</svg>

<svg xmlns='http://www.w3.org/2000/svg' xmlns:xlink='http://www.w3.org/1999/xlink' viewBox='0 0 1500 1000' width='1500' height='1000'>
    <g transform='matrix(0.5071, 0, 0, 0.5071, -50, 288)'>
        <rect x='0' y='-600' width='600' height='600' fill='rgb(100%, 100%, 100%)'/>
        <rect class='anchor' x='0' y='0' width='1' height='1'/>
        <g transform='matrix(1, 0, 0, 1, 360, 0)'>
            <rect class='anchor' x='0' y='0' width='1' height='1'/>
        </g>
        <g transform='matrix(1, 0, 0, 1, 636.375, 680)'>
            <g transform='matrix(1, 0, 0, 1, -4.8535, -317.5906)'>
                <path fill-mode='evenodd' fill='rgb(100%, 64.7058823529412%, 0%)' d='M -4.747 -45.94 L -5.632 -45.46 L -5.636 -46.03 Z '/>
            </g>
        </g>
        <g transform='matrix(19.1503, 0, 0, 19.1503, 94.8181, -657.5025)'>
            <use href='#0' xlink:href='#0' fill='rgb(90.5882352941177%, 7.05882352941176%, 14.1176470588235%)'/>
        </g>
    </g>
    <defs>
        <path id='1' d='M 22.37 -0.75 C 22.37 -0.37, 22.22 -0.06, 21.92 0.2 C 21.62 0.45, 21.26 0.58, 20.84 0.58 C 20.23 0.58, 19.72 0.06, 19.31 -0.98 C 18.9 -2.01, 18.65 -3.05, 18.56 -4.08 C 18.47 -4.96, 18.38 -6.98, 18.29 -10.15 C 18.24 -11.45, 18.24 -12.16, 18.29 -12.27 C 17.08 -8.59, 15.46 -5.27, 13.41 -2.34 C 11.36 0.6, 9.39 2.07, 7.51 2.07 C 6.49 2.07, 5.64 1.51, 4.95 0.37 C 4.27 -0.76, 3.75 -2.25, 3.4 -4.08 C 3.06 -5.91, 2.88 -7.92, 2.88 -10.1 C 2.88 -11.86, 2.99 -13.85, 3.19 -16.07 C 3.4 -18.3, 3.65 -19.88, 3.94 -20.82 C 4.05 -21.19, 4.22 -21.48, 4.44 -21.7 C 4.66 -21.92, 4.93 -22.03, 5.26 -22.03 C 6.06 -22.03, 6.45 -21.71, 6.45 -21.08 C 6.45 -20.99, 6.24 -20.16, 5.81 -18.6 C 5.38 -17.04, 5.16 -14.12, 5.16 -9.86 C 5.16 -7.04, 5.41 -4.77, 5.92 -3.04 C 6.43 -1.31, 7.08 -0.44, 7.88 -0.44 C 8.72 -0.44, 9.78 -1.19, 11.05 -2.69 C 12.32 -4.19, 13.55 -6.02, 14.73 -8.16 C 15.92 -10.3, 16.77 -12.16, 17.3 -13.72 C 17.66 -14.95, 17.9 -16.75, 18.01 -19.13 C 18.09 -20.13, 18.18 -20.68, 18.29 -20.79 C 18.51 -21.08, 18.86 -21.22, 19.34 -21.22 C 19.97 -21.22, 20.29 -20.56, 20.29 -19.24 C 20.29 -17.74, 20.33 -15.17, 20.41 -11.52 C 20.49 -7.88, 20.58 -5.56, 20.69 -4.55 C 20.78 -3.75, 20.94 -3.12, 21.17 -2.66 C 21.39 -2.21, 21.65 -1.82, 21.94 -1.48 C 22.22 -1.15, 22.37 -0.9, 22.37 -0.75 Z '/>
        <use id='0' href='#1' xlink:href='#1' transform='matrix(1, 0, 0, 1, 0, 30.94)'/>
    </defs>
</svg>
